X:436
T: Aus der Tiefe schreien wir empor (5-32), S. 54
N: P0706
O: Lothringen
S: MERKELBACH-PINCK, Angelika: Verklingende Weisen, Bd 5, Kassel 1962]
R: geistliches, religises Lied]
M: 4/4
L: 1/16
K: F
D4E4F2E2E4 | F4G4A2G2F2D2 | E8z8 |
A4F2E2D2E2D4 | B3AG2F2E2D2C4 |
F4G4A4B2d2 | c4E4F8 |
A4F2E2D2E2D4 | B3AG2F2E2D2C4 |
F4G4A4B2d2 | c4E4F8 |
A4F2E2D2E2D4 | B3AG2F2E2D2C4 |
F4G4A4B2d2 | c4E4F8

@@@ Tune index: 7986
